X: 2202
T: The Hamilton Rant
P: Dr. Bob Smith
C:J. Stanley Hamilton
R:Reel (8x48)
B:RSCDS 22-2
Z:Anselm Lingnau <anselm@strathspey.org>
M:C
L:1/8
K:D
"D"DFAd BdAF|DFAd B2 Ad|"A"cdef gfed|"E7"edcB "A7"AGFE|
"D"DFAd BdAF|DFAd B2 Ad|"A7"cAce gece|"D"d2 f2 d2||
fg|"D"a2 ab afdf|abaf dfed|"A"cAce "E7"afed|"A"c2 A2 "A7"A2 fg|
   "D"a2 ab afdf|abaf dfed|"A"cAce aece|"D"d2 f2 d2 z2|]
%%center Book22/2202-Hamilton_Rant-AL.abc

%%sep 1 1 500
%%sep 1 1 500
